src/icons/logos/prismic.svg

<svg width="685" height="220" viewBox="0 0 685 220" fill="none" xmlns="http://www.w3.org/2000/svg">
<path fill-rule="evenodd" clip-rule="evenodd" d="M225.788 77.7337H230.033C232.931 77.7337 235.279 80.0824 235.279 82.9796V87.9466C235.279 88.1006 235.404 88.2255 235.558 88.2255C237.975 83.9511 241.228 80.8424 245.317 78.8995C249.407 76.9566 253.822 75.9851 258.563 75.9851C263.675 75.9851 268.275 76.9323 272.365 78.8267C276.455 80.721 279.94 83.3196 282.822 86.6226C285.703 89.9255 287.887 93.8113 289.374 98.28C290.861 102.749 291.605 107.557 291.605 112.706C291.605 117.854 290.815 122.663 289.235 127.132C287.655 131.601 285.448 135.487 282.613 138.79C279.778 142.092 276.362 144.691 272.365 146.585C268.368 148.48 264 149.427 259.26 149.427C256.1 149.427 253.311 149.087 250.894 148.407C248.478 147.727 246.34 146.853 244.481 145.784C242.622 144.715 241.042 143.574 239.741 142.36C238.439 141.145 237.371 139.955 236.534 138.79C236.303 138.79 236.116 138.977 236.116 139.208V174.5C236.116 178.035 233.25 180.902 229.714 180.902H225.788C222.252 180.902 219.386 178.035 219.386 174.5V84.1359C219.386 80.6001 222.252 77.7337 225.788 77.7337ZM274.874 112.706C274.874 109.986 274.433 107.363 273.55 104.837C272.667 102.311 271.366 100.077 269.646 98.1343C267.927 96.1914 265.859 94.6371 263.442 93.4713C261.026 92.3056 258.284 91.7227 255.216 91.7227C252.149 91.7227 249.407 92.3056 246.991 93.4713C244.574 94.6371 242.506 96.1914 240.786 98.1343C239.067 100.077 237.766 102.311 236.883 104.837C236 107.363 235.558 109.986 235.558 112.706C235.558 115.426 236 118.049 236.883 120.575C237.766 123.1 239.067 125.335 240.786 127.278C242.506 129.22 244.574 130.775 246.991 131.941C249.407 133.106 252.149 133.689 255.216 133.689C258.284 133.689 261.026 133.106 263.442 131.941C265.859 130.775 267.927 129.22 269.646 127.278C271.366 125.335 272.667 123.1 273.55 120.575C274.433 118.049 274.874 115.426 274.874 112.706ZM315.713 77.7337H320.505C323.563 77.7337 326.042 80.2129 326.042 83.271V88.5295C326.042 88.6835 326.167 88.8083 326.321 88.8083C328.179 84.7282 330.828 81.571 334.267 79.3367C337.707 77.1023 341.657 75.9851 346.118 75.9851C347.14 75.9851 348.139 76.0823 349.115 76.2766C350.858 76.6236 352.113 78.153 352.113 79.9297V89.5233C352.113 91.4527 350.549 93.0167 348.62 93.0167C348.412 93.0167 348.205 92.9981 348 92.9613C346.652 92.7184 345.328 92.597 344.026 92.597C340.123 92.597 336.986 93.3498 334.616 94.8556C332.246 96.3613 330.434 98.0857 329.178 100.029C327.924 101.972 327.087 103.914 326.669 105.857C326.251 107.8 326.042 109.257 326.042 110.229V141.276C326.042 144.812 323.175 147.678 319.64 147.678H315.713C312.178 147.678 309.311 144.812 309.311 141.276V84.1359C309.311 80.6001 312.178 77.7337 315.713 77.7337ZM372.318 77.7337H376.244C379.78 77.7337 382.646 80.6001 382.646 84.1359V141.276C382.646 144.812 379.78 147.678 376.244 147.678H372.318C368.782 147.678 365.916 144.812 365.916 141.276V84.1359C365.916 80.6001 368.782 77.7337 372.318 77.7337ZM363.545 53.9818C363.545 51.1646 364.544 48.7117 366.543 46.623C368.542 44.5344 371.074 43.4902 374.141 43.4902C377.209 43.4902 379.788 44.4859 381.879 46.4773C383.971 48.4688 385.016 50.9703 385.016 53.9818C385.016 56.9933 383.971 59.4948 381.879 61.4863C379.788 63.4778 377.209 64.4735 374.141 64.4735C371.074 64.4735 368.542 63.4292 366.543 61.3406C364.544 59.252 363.545 56.799 363.545 53.9818ZM435.626 93.718C432.232 91.222 429.211 89.9741 426.563 89.9741C424.333 89.9741 422.149 90.5569 420.011 91.7227C417.873 92.8885 416.804 94.7828 416.804 97.4057C416.804 99.5429 417.687 101.097 419.453 102.069C421.219 103.04 423.449 103.865 426.145 104.546C428.84 105.226 431.745 105.93 434.859 106.659C437.972 107.388 440.877 108.504 443.573 110.011C446.268 111.516 448.498 113.58 450.264 116.203C452.03 118.826 452.914 122.42 452.914 126.986C452.914 131.163 452.054 134.685 450.334 137.551C448.615 140.417 446.384 142.724 443.642 144.472C440.9 146.221 437.81 147.484 434.371 148.261C430.932 149.038 427.493 149.427 424.054 149.427C418.848 149.427 414.062 148.65 409.694 147.095C407.983 146.487 405.93 145.264 403.535 143.426C400.73 141.274 400.201 137.254 402.354 134.449C402.537 134.21 402.737 133.985 402.952 133.774L404.688 132.074C407.082 129.727 410.882 129.626 413.398 131.841C414.413 132.735 415.293 133.424 416.037 133.908C418.5 135.511 421.498 136.312 425.03 136.312C426.238 136.312 427.493 136.167 428.794 135.875C430.095 135.584 431.303 135.098 432.419 134.418C433.535 133.738 434.441 132.888 435.138 131.868C435.834 130.848 436.183 129.658 436.183 128.298C436.183 125.869 435.3 124.072 433.534 122.906C431.769 121.74 429.537 120.794 426.842 120.065C424.146 119.337 421.242 118.657 418.128 118.025C415.015 117.394 412.11 116.373 409.415 114.965C406.719 113.556 404.488 111.589 402.722 109.063C400.956 106.537 400.074 103.04 400.074 98.5717C400.074 94.6856 400.84 91.3098 402.374 88.444C403.908 85.5782 405.929 83.2225 408.439 81.3767C410.948 79.5309 413.829 78.1709 417.082 77.2966C420.335 76.4223 423.636 75.9851 426.981 75.9851C431.443 75.9851 435.858 76.7866 440.226 78.3895C441.808 78.9699 443.573 80.0446 445.52 81.6138C448.273 83.8322 448.707 87.8625 446.489 90.6158C446.304 90.8448 446.104 91.0608 445.89 91.2622L443.805 93.2233C441.555 95.3397 438.115 95.5478 435.626 93.718ZM473.676 77.7337H476.765C480.302 77.7337 483.168 80.6001 483.168 84.1359V88.6626C484.934 85.3597 487.327 82.4211 490.626 79.8467C493.926 77.2723 498.364 75.9851 503.941 75.9851C514.444 75.9851 521.415 80.3081 524.854 88.9541C527.27 84.4854 530.292 81.2067 533.916 79.1181C537.541 77.0295 541.863 75.9851 546.882 75.9851C551.344 75.9851 555.108 76.7623 558.175 78.3166C561.243 79.871 563.729 82.0082 565.635 84.7282C567.54 87.4483 568.911 90.6298 569.747 94.2727C570.584 97.9157 571.002 101.825 571.002 106.003V141.276C571.002 144.812 568.136 147.678 564.6 147.678H560.674C557.138 147.678 554.272 144.812 554.272 141.276V108.043C554.272 105.906 554.086 103.841 553.714 101.85C553.342 99.8582 552.692 98.11 551.762 96.6042C550.833 95.0984 549.578 93.9085 547.998 93.0342C546.418 92.1599 544.373 91.7227 541.863 91.7227C539.261 91.7227 537.053 92.2327 535.241 93.2527C533.428 94.2727 531.941 95.6327 530.78 97.3328C529.618 99.0327 528.781 100.976 528.27 103.161C527.758 105.348 527.503 107.557 527.503 109.791V141.276C527.503 144.812 524.637 147.678 521.101 147.678H517.175C513.639 147.678 510.773 144.812 510.773 141.276V106.003C510.773 101.631 509.89 98.1585 508.124 95.5842C506.358 93.0098 503.43 91.7227 499.34 91.7227C496.552 91.7227 494.205 92.2084 492.3 93.1799C490.394 94.1513 488.814 95.4628 487.56 97.1143C486.305 98.7658 485.398 100.66 484.84 102.797C484.283 104.934 484.004 107.168 484.004 109.5V141.276C484.004 144.812 481.138 147.678 477.602 147.678H473.676C470.14 147.678 467.274 144.812 467.274 141.276V84.1359C467.274 80.6001 470.14 77.7337 473.676 77.7337ZM598.038 77.7337H601.965C605.5 77.7337 608.367 80.6001 608.367 84.1359V141.276C608.367 144.812 605.5 147.678 601.965 147.678H598.038C594.502 147.678 591.636 144.812 591.636 141.276V84.1359C591.636 80.6001 594.502 77.7337 598.038 77.7337ZM589.266 53.9818C589.266 51.1646 590.265 48.7117 592.263 46.623C594.262 44.5344 596.794 43.4902 599.862 43.4902C602.929 43.4902 605.508 44.4859 607.599 46.4773C609.691 48.4688 610.737 50.9703 610.737 53.9818C610.737 56.9933 609.691 59.4948 607.599 61.4863C605.508 63.4778 602.929 64.4735 599.862 64.4735C596.794 64.4735 594.262 63.4292 592.263 61.3406C590.265 59.252 589.266 56.799 589.266 53.9818ZM671.109 94.8879C670.42 94.3491 669.815 93.9254 669.293 93.617C667.155 92.3541 664.971 91.7227 662.74 91.7227C659.673 91.7227 656.931 92.3056 654.514 93.4713C652.098 94.6371 650.03 96.1914 648.311 98.1343C646.591 100.077 645.289 102.311 644.407 104.837C643.523 107.363 643.082 109.986 643.082 112.706C643.082 115.426 643.523 118.049 644.407 120.575C645.289 123.1 646.591 125.335 648.311 127.278C650.03 129.22 652.098 130.775 654.514 131.941C656.931 133.106 659.673 133.689 662.74 133.689C665.343 133.689 667.76 133.131 669.99 132.013C670.441 131.788 670.931 131.481 671.459 131.092C674.121 129.135 677.836 129.525 680.033 131.994L682.576 134.851C684.815 137.366 684.591 141.219 682.075 143.457C681.767 143.732 681.431 143.974 681.074 144.181C678.889 145.444 676.682 146.464 674.451 147.241C672.221 148.018 670.083 148.577 668.038 148.917C665.994 149.257 664.228 149.427 662.74 149.427C657.721 149.427 652.981 148.552 648.52 146.804C644.058 145.055 640.2 142.578 636.947 139.372C633.694 136.167 631.115 132.305 629.21 127.788C627.305 123.27 626.351 118.243 626.351 112.706C626.351 107.168 627.305 102.142 629.21 97.6242C631.115 93.107 633.694 89.2455 636.947 86.0397C640.2 82.8339 644.058 80.3567 648.52 78.6081C652.981 76.8594 657.721 75.9851 662.74 75.9851C667.016 75.9851 671.314 76.8352 675.636 78.5352C677.283 79.1831 679.227 80.3415 681.466 82.0104C684.301 84.1232 684.887 88.1344 682.773 90.9694C682.617 91.1797 682.447 91.3801 682.266 91.5695L679.68 94.2721C677.406 96.6493 673.7 96.9155 671.109 94.8879Z" fill="currentColor"/>
<path fill-rule="evenodd" clip-rule="evenodd" d="M173.631 118.559L160.66 105.56C159.632 104.529 159.055 103.133 159.055 101.677V85.7664C159.055 71.0658 157.528 65.735 154.659 60.3606C151.792 54.9863 147.582 50.7685 142.22 47.8943C136.857 45.0201 131.538 43.4894 116.869 43.4894H95.8891C95.2819 43.4894 94.7896 42.9972 94.7896 42.3901C94.7896 42.099 94.9051 41.8198 95.1106 41.6136L108.082 28.6141C109.113 27.5807 110.513 27 111.973 27H119.26C138.819 27 145.912 29.0409 153.062 32.8731C160.213 36.7055 165.824 42.3292 169.648 49.495C173.472 56.6607 175.509 63.7684 175.509 83.3693V117.782C175.509 118.389 175.017 118.881 174.409 118.881C174.118 118.881 173.837 118.765 173.631 118.559Z" fill="currentColor"/>
<path fill-rule="evenodd" clip-rule="evenodd" d="M84.1414 201.014L97.1129 188.014C98.1439 186.98 99.5439 186.4 101.004 186.4H116.869C131.538 186.4 136.857 184.869 142.219 181.995C147.582 179.121 151.791 174.903 154.659 169.529C157.527 164.154 159.055 158.823 159.055 144.123V123.1C159.055 122.493 159.547 122.001 160.154 122.001C160.446 122.001 160.726 122.117 160.932 122.324L173.903 135.322C174.931 136.353 175.508 137.749 175.508 139.205V146.52C175.508 166.121 173.472 173.228 169.648 180.394C165.824 187.56 160.212 193.184 153.062 197.016C145.911 200.848 138.819 202.89 119.26 202.89H84.9192C84.3119 202.89 83.8203 202.397 83.8203 201.79C83.8203 201.499 83.9359 201.22 84.1414 201.014Z" fill="currentColor"/>
<path fill-rule="evenodd" clip-rule="evenodd" d="M1.87745 111.329L14.8482 124.328C15.8765 125.359 16.454 126.755 16.454 128.211V144.121C16.454 158.822 17.9813 164.153 20.8493 169.527C23.7174 174.901 27.9261 179.119 33.2889 181.993C38.6517 184.868 43.971 186.399 58.64 186.399H79.6198C80.2271 186.399 80.7194 186.89 80.7194 187.498C80.7194 187.789 80.6038 188.068 80.3983 188.274L67.4264 201.274C66.3953 202.307 64.9954 202.888 63.5357 202.888H56.2481C36.6894 202.888 29.5969 200.847 22.4466 197.015C15.2962 193.182 9.68454 187.559 5.86052 180.393C2.03646 173.227 0 166.119 0 146.519V112.106C0 111.499 0.492171 111.007 1.0993 111.007C1.39126 111.007 1.67122 111.123 1.87745 111.329Z" fill="currentColor"/>
<path fill-rule="evenodd" clip-rule="evenodd" d="M91.3676 28.8758L78.3954 41.8753C77.3643 42.9087 75.9651 43.4894 74.5052 43.4894H58.64C43.971 43.4894 38.6516 45.0201 33.2889 47.8943C27.9261 50.7685 23.7174 54.9863 20.8493 60.3606C17.9813 65.735 16.454 71.0658 16.454 85.7664V106.789C16.454 107.396 15.9618 107.889 15.3546 107.889C15.0627 107.889 14.7827 107.772 14.5765 107.566L1.6057 94.5669C0.577468 93.5365 0 92.1402 0 90.6844V83.3694C0 63.7685 2.03646 56.6608 5.86052 49.495C9.68454 42.3292 15.2962 36.7055 22.4466 32.8732C29.5969 29.0409 36.6894 27 56.2481 27H90.5891C91.1963 27 91.6887 27.4922 91.6887 28.0993C91.6887 28.3904 91.5731 28.6697 91.3676 28.8758Z" fill="currentColor"/>
<path fill-rule="evenodd" clip-rule="evenodd" d="M146.226 91.1749L128.539 74.234C127.369 73.0616 126 72.2094 124.542 71.6773C123.336 71.2203 122.029 70.9701 120.663 70.9701H68.4538C67.8467 70.9701 67.3545 70.478 67.3545 69.8709C67.3545 69.5796 67.4702 69.3002 67.6759 69.0941L80.6595 56.0932C81.6906 55.0608 83.0899 54.4808 84.5491 54.4808H126.147C138.264 54.4808 148.086 64.3242 148.086 76.4666V90.381C148.086 90.9881 147.594 91.4803 146.987 91.4803C146.704 91.4803 146.431 91.3709 146.226 91.1749Z" fill="currentColor"/>
<path fill-rule="evenodd" clip-rule="evenodd" d="M111.466 173.559L128.375 155.828C129.545 154.655 130.396 153.284 130.927 151.822C131.383 150.613 131.632 149.303 131.632 147.935V95.6158C131.632 95.0086 132.124 94.5165 132.731 94.5165C133.023 94.5165 133.304 94.6327 133.51 94.8396L146.482 107.851C147.509 108.881 148.086 110.277 148.086 111.732V153.431C148.086 165.574 138.264 175.417 126.147 175.417H112.261C111.654 175.417 111.162 174.925 111.162 174.318C111.162 174.035 111.27 173.763 111.466 173.559Z" fill="currentColor"/>
<path fill-rule="evenodd" clip-rule="evenodd" d="M29.2835 138.713L46.9712 155.654C48.1411 156.826 49.5096 157.678 50.9681 158.21C52.1741 158.667 53.4814 158.917 54.8472 158.917H107.056C107.663 158.917 108.155 159.41 108.155 160.017C108.155 160.308 108.04 160.587 107.834 160.793L94.8501 173.794C93.819 174.826 92.4198 175.407 90.9606 175.407H49.3624C37.2461 175.407 27.4238 165.563 27.4238 153.421V139.506C27.4238 138.9 27.916 138.407 28.5232 138.407C28.8065 138.407 29.0789 138.516 29.2835 138.713Z" fill="currentColor"/>
<path fill-rule="evenodd" clip-rule="evenodd" d="M64.0446 56.3387L47.1346 74.0702C45.9647 75.2426 45.1143 76.614 44.5834 78.0757C44.1274 79.2843 43.8778 80.5945 43.8778 81.9631V134.282C43.8778 134.89 43.3856 135.381 42.7785 135.381C42.4864 135.381 42.2063 135.265 42.0001 135.058L29.0279 122.047C28.0007 121.017 27.4238 119.621 27.4238 118.166V76.4666C27.4238 64.3242 37.2461 54.4808 49.3625 54.4808H63.249C63.8561 54.4808 64.3483 54.9729 64.3483 55.5801C64.3483 55.8626 64.2395 56.1343 64.0446 56.3387Z" fill="currentColor"/>
</svg>

<svg xmlns="http://www.w3.org/2000/svg" width="685" height="220" fill="none">
    <path fill="currentColor" fill-rule="evenodd"
        d="M225.788 77.734h4.245a5.246 5.246 0 0 1 5.246 5.246v4.967c0 .154.125.278.279.278 2.417-4.274 5.67-7.383 9.759-9.325 4.09-1.943 8.505-2.915 13.246-2.915 5.112 0 9.712.947 13.802 2.842 4.09 1.894 7.575 4.493 10.457 7.796 2.881 3.302 5.065 7.188 6.552 11.657 1.487 4.469 2.231 9.277 2.231 14.426 0 5.148-.79 9.957-2.37 14.426-1.58 4.469-3.787 8.355-6.622 11.658-2.835 3.302-6.251 5.901-10.248 7.795-3.997 1.895-8.365 2.842-13.105 2.842-3.16 0-5.949-.34-8.366-1.02-2.416-.68-4.554-1.554-6.413-2.623-1.859-1.069-3.439-2.21-4.74-3.424-1.302-1.215-2.37-2.405-3.207-3.57a.418.418 0 0 0-.418.418V174.5a6.402 6.402 0 0 1-6.402 6.402h-3.926a6.402 6.402 0 0 1-6.402-6.402V84.136a6.402 6.402 0 0 1 6.402-6.402Zm49.086 34.972c0-2.72-.441-5.343-1.324-7.869s-2.184-4.76-3.904-6.703c-1.719-1.943-3.787-3.497-6.204-4.663-2.416-1.165-5.158-1.748-8.226-1.748-3.067 0-5.809.583-8.225 1.748-2.417 1.166-4.485 2.72-6.205 4.663-1.719 1.943-3.02 4.177-3.903 6.703a23.676 23.676 0 0 0-1.325 7.869c0 2.72.442 5.343 1.325 7.869.883 2.525 2.184 4.76 3.903 6.703 1.72 1.942 3.788 3.497 6.205 4.663 2.416 1.165 5.158 1.748 8.225 1.748 3.068 0 5.81-.583 8.226-1.748 2.417-1.166 4.485-2.721 6.204-4.663 1.72-1.943 3.021-4.178 3.904-6.703a23.675 23.675 0 0 0 1.324-7.869Zm40.839-34.972h4.792a5.537 5.537 0 0 1 5.537 5.537v5.258c0 .154.125.28.279.28 1.858-4.08 4.507-7.238 7.946-9.472 3.44-2.235 7.39-3.352 11.851-3.352 1.022 0 2.021.097 2.997.292a3.725 3.725 0 0 1 2.998 3.653v9.593A3.493 3.493 0 0 1 348 92.961a22.375 22.375 0 0 0-3.974-.364c-3.903 0-7.04.753-9.41 2.259-2.37 1.505-4.182 3.23-5.438 5.173-1.254 1.943-2.091 3.885-2.509 5.828-.418 1.943-.627 3.4-.627 4.372v31.047a6.402 6.402 0 0 1-6.402 6.402h-3.927a6.402 6.402 0 0 1-6.402-6.402v-57.14a6.403 6.403 0 0 1 6.402-6.402Zm56.605 0h3.926a6.402 6.402 0 0 1 6.402 6.402v57.14a6.402 6.402 0 0 1-6.402 6.402h-3.926a6.402 6.402 0 0 1-6.402-6.402v-57.14a6.402 6.402 0 0 1 6.402-6.402Zm-8.773-23.752c0-2.817.999-5.27 2.998-7.359 1.999-2.089 4.531-3.133 7.598-3.133 3.068 0 5.647.996 7.738 2.987 2.092 1.992 3.137 4.493 3.137 7.505 0 3.011-1.045 5.513-3.137 7.504-2.091 1.992-4.67 2.988-7.738 2.988-3.067 0-5.599-1.045-7.598-3.133-1.999-2.089-2.998-4.542-2.998-7.36Zm72.081 39.736c-3.394-2.496-6.415-3.744-9.063-3.744-2.23 0-4.414.583-6.552 1.749-2.138 1.165-3.207 3.06-3.207 5.683 0 2.137.883 3.691 2.649 4.663 1.766.971 3.996 1.796 6.692 2.477 2.695.68 5.6 1.384 8.714 2.113 3.113.729 6.018 1.845 8.714 3.352 2.695 1.505 4.925 3.569 6.691 6.192s2.65 6.217 2.65 10.783c0 4.177-.86 7.699-2.58 10.565-1.719 2.866-3.95 5.173-6.692 6.921-2.742 1.749-5.832 3.012-9.271 3.789a46.684 46.684 0 0 1-10.317 1.166c-5.206 0-9.992-.777-14.36-2.332-1.711-.608-3.764-1.831-6.159-3.669a6.402 6.402 0 0 1-.583-9.652l1.736-1.7a6.4 6.4 0 0 1 8.71-.233c1.015.894 1.895 1.583 2.639 2.067 2.463 1.603 5.461 2.404 8.993 2.404 1.208 0 2.463-.145 3.764-.437a11.914 11.914 0 0 0 3.625-1.457c1.116-.68 2.022-1.53 2.719-2.55.696-1.02 1.045-2.21 1.045-3.57 0-2.429-.883-4.226-2.649-5.392-1.765-1.166-3.997-2.112-6.692-2.841-2.696-.728-5.6-1.408-8.714-2.04-3.113-.631-6.018-1.652-8.713-3.06-2.696-1.409-4.927-3.376-6.693-5.902-1.766-2.526-2.648-6.023-2.648-10.491 0-3.886.766-7.262 2.3-10.128 1.534-2.866 3.555-5.222 6.065-7.067 2.509-1.846 5.39-3.206 8.643-4.08a37.985 37.985 0 0 1 9.899-1.312c4.462 0 8.877.802 13.245 2.404 1.582.58 3.347 1.656 5.294 3.225a6.403 6.403 0 0 1 .37 9.648l-2.085 1.961a6.402 6.402 0 0 1-8.179.495Zm38.05-15.984h3.089a6.402 6.402 0 0 1 6.403 6.402v4.527c1.766-3.303 4.159-6.242 7.458-8.816 3.3-2.575 7.738-3.862 13.315-3.862 10.503 0 17.474 4.323 20.913 12.97 2.416-4.47 5.438-7.748 9.062-9.837 3.625-2.088 7.947-3.133 12.966-3.133 4.462 0 8.226.777 11.293 2.332 3.068 1.554 5.554 3.691 7.46 6.411 1.905 2.72 3.276 5.902 4.112 9.545.837 3.643 1.255 7.552 1.255 11.73v35.273a6.402 6.402 0 0 1-6.402 6.402h-3.926a6.402 6.402 0 0 1-6.402-6.402v-33.233c0-2.137-.186-4.202-.558-6.193-.372-1.992-1.022-3.74-1.952-5.246a10.07 10.07 0 0 0-3.764-3.57c-1.58-.874-3.625-1.311-6.135-1.311-2.602 0-4.81.51-6.622 1.53a13.11 13.11 0 0 0-4.461 4.08c-1.162 1.7-1.999 3.643-2.51 5.828a28.984 28.984 0 0 0-.767 6.63v31.485a6.402 6.402 0 0 1-6.402 6.402h-3.926a6.402 6.402 0 0 1-6.402-6.402v-35.273c0-4.372-.883-7.844-2.649-10.419-1.766-2.574-4.694-3.861-8.784-3.861-2.788 0-5.135.485-7.04 1.457-1.906.971-3.486 2.283-4.74 3.934-1.255 1.652-2.162 3.546-2.72 5.683a26.47 26.47 0 0 0-.836 6.703v31.776a6.402 6.402 0 0 1-6.402 6.402h-3.926a6.402 6.402 0 0 1-6.402-6.402v-57.14a6.402 6.402 0 0 1 6.402-6.402Zm124.362 0h3.927a6.403 6.403 0 0 1 6.402 6.402v57.14a6.402 6.402 0 0 1-6.402 6.402h-3.927a6.402 6.402 0 0 1-6.402-6.402v-57.14a6.402 6.402 0 0 1 6.402-6.402Zm-8.772-23.752c0-2.817.999-5.27 2.997-7.359 1.999-2.089 4.531-3.133 7.599-3.133 3.067 0 5.646.996 7.737 2.987 2.092 1.992 3.138 4.493 3.138 7.505 0 3.011-1.046 5.513-3.138 7.504-2.091 1.992-4.67 2.988-7.737 2.988-3.068 0-5.6-1.045-7.599-3.133-1.998-2.089-2.997-4.542-2.997-7.36Zm81.843 40.906a17.479 17.479 0 0 0-1.816-1.271c-2.138-1.263-4.322-1.894-6.553-1.894-3.067 0-5.809.583-8.226 1.748-2.416 1.166-4.484 2.72-6.203 4.663-1.72 1.943-3.022 4.177-3.904 6.703a23.65 23.65 0 0 0-1.325 7.869c0 2.72.441 5.343 1.325 7.869.882 2.525 2.184 4.76 3.904 6.703 1.719 1.942 3.787 3.497 6.203 4.663 2.417 1.165 5.159 1.748 8.226 1.748 2.603 0 5.02-.558 7.25-1.676.451-.225.941-.532 1.469-.921a6.402 6.402 0 0 1 8.574.902l2.543 2.857a6.094 6.094 0 0 1-1.502 9.33 38.606 38.606 0 0 1-6.623 3.06c-2.23.777-4.368 1.336-6.413 1.676-2.044.34-3.81.51-5.298.51-5.019 0-9.759-.875-14.22-2.623-4.462-1.749-8.32-4.226-11.573-7.432-3.253-3.205-5.832-7.067-7.737-11.584-1.905-4.518-2.859-9.545-2.859-15.082 0-5.538.954-10.564 2.859-15.082 1.905-4.517 4.484-8.378 7.737-11.584 3.253-3.206 7.111-5.683 11.573-7.432 4.461-1.749 9.201-2.623 14.22-2.623 4.276 0 8.574.85 12.896 2.55 1.647.648 3.591 1.806 5.83 3.475a6.401 6.401 0 0 1 .8 9.56l-2.586 2.702a6.402 6.402 0 0 1-8.571.616ZM173.631 118.559 160.66 105.56a5.499 5.499 0 0 1-1.605-3.883v-15.91c0-14.701-1.527-20.032-4.396-25.406-2.867-5.375-7.077-9.592-12.439-12.467-5.363-2.874-10.682-4.405-25.351-4.405h-20.98a1.1 1.1 0 0 1-.778-1.875l12.971-13A5.496 5.496 0 0 1 111.973 27h7.287c19.559 0 26.652 2.04 33.802 5.873 7.151 3.833 12.762 9.456 16.586 16.622 3.824 7.166 5.861 14.273 5.861 33.874v34.413a1.1 1.1 0 0 1-1.878.777ZM84.141 201.014l12.972-13a5.494 5.494 0 0 1 3.891-1.614h15.865c14.669 0 19.988-1.531 25.35-4.405 5.363-2.874 9.572-7.092 12.44-12.466 2.868-5.375 4.396-10.706 4.396-25.406V123.1a1.099 1.099 0 0 1 1.877-.776l12.971 12.998a5.499 5.499 0 0 1 1.605 3.883v7.315c0 19.601-2.036 26.708-5.86 33.874-3.824 7.166-9.436 12.79-16.586 16.622-7.151 3.832-14.243 5.874-33.802 5.874H84.92a1.1 1.1 0 0 1-.779-1.876ZM1.877 111.329l12.971 12.999a5.498 5.498 0 0 1 1.606 3.883v15.91c0 14.701 1.527 20.032 4.395 25.406 2.868 5.374 7.077 9.592 12.44 12.466 5.363 2.875 10.682 4.406 25.351 4.406h20.98a1.099 1.099 0 0 1 .778 1.875l-12.972 13a5.498 5.498 0 0 1-3.89 1.614h-7.288c-19.559 0-26.651-2.041-33.801-5.873-7.15-3.833-12.762-9.456-16.586-16.622C2.036 173.227 0 166.119 0 146.519v-34.413a1.1 1.1 0 0 1 1.877-.777ZM91.368 28.876l-12.973 13a5.495 5.495 0 0 1-3.89 1.613H58.64c-14.669 0-19.988 1.531-25.351 4.405-5.363 2.875-9.572 7.092-12.44 12.467-2.868 5.374-4.395 10.705-4.395 25.405v21.023a1.1 1.1 0 0 1-1.878.777l-12.97-13A5.496 5.496 0 0 1 0 90.685V83.37c0-19.6 2.036-26.708 5.86-33.874 3.825-7.166 9.436-12.79 16.587-16.622C29.597 29.041 36.689 27 56.248 27H90.59a1.1 1.1 0 0 1 .779 1.876Z"
        clip-rule="evenodd" />
    <path fill="currentColor" fill-rule="evenodd"
        d="m146.226 91.175-17.687-16.941a10.931 10.931 0 0 0-3.997-2.557 10.923 10.923 0 0 0-3.879-.707h-52.21a1.1 1.1 0 0 1-.777-1.876l12.983-13a5.497 5.497 0 0 1 3.89-1.613h41.598c12.117 0 21.939 9.843 21.939 21.986V90.38a1.1 1.1 0 0 1-1.86.794ZM111.466 173.559l16.909-17.731a10.96 10.96 0 0 0 2.552-4.006c.456-1.209.705-2.519.705-3.887v-52.32a1.1 1.1 0 0 1 1.878-.775l12.972 13.011a5.497 5.497 0 0 1 1.604 3.881v41.699c0 12.143-9.822 21.986-21.939 21.986h-13.886a1.099 1.099 0 0 1-.795-1.858ZM29.284 138.713l17.687 16.941a10.928 10.928 0 0 0 3.997 2.556c1.206.457 2.513.707 3.88.707h52.208a1.1 1.1 0 0 1 .778 1.876L94.85 173.794a5.5 5.5 0 0 1-3.89 1.613H49.363c-12.116 0-21.938-9.844-21.938-21.986v-13.915a1.1 1.1 0 0 1 1.86-.793ZM64.045 56.339 47.135 74.07a10.954 10.954 0 0 0-2.552 4.006 10.99 10.99 0 0 0-.705 3.887v52.319a1.099 1.099 0 0 1-1.878.776l-12.972-13.011a5.496 5.496 0 0 1-1.604-3.881v-41.7c0-12.142 9.822-21.985 21.938-21.985H63.25a1.1 1.1 0 0 1 .796 1.858Z"
        clip-rule="evenodd" />
</svg>
